X:6437
T:Taur Polka, The
O:england
S:Denis Brooks
R:polka
E:9
I:speed 450
M:2/4
K:D
B|{AB}A2D2 .F.GA2|d2c2 A2B2|=c3 z {d}c2G2|{EG}D2F2 {c}G2B2|{AB}A2D2 .F.GA2|d2c2 A2B2|=c3 z {d}c2E2|{GEF}E2.D2 D3:|
e|{a}f2gf e2.d2|c2.A2 A2d2|f2d2 e2f2|{a}g4 a2.g2|{a}f2gf e2.d2c2.A2 A2B2|=c3 z {d}c2E2|{GEF}F2.D2 D3:|


